X:3482
T:Cottage Hornpipe. BF13.014
M:2/2
L:1/8
Q:150
S:J.Lishman(?)MS,c1825,Lakes,Browne Coll.
R:Hornpipe
O:England
A:Lakes
Z:vmp.Cherri Graebe.
K:A major
ed|cdBcA2fe|decd B2ed|cefg aefd|cABGE2ed|!
cdBc A2fe|decdB2ed|cefg "NB"aefd|c2A2A2:|!
|:"NB"((3Bcd)| e3 f efec|agfe|dcBA|cAeA fAeA|!
B2B2B2E2|AcBd cedf|eagb a2A2|fedc ceEG|A2A2A2:|]
W:Bar7(cefg gefd)in ms.Leadin notes to bar 9 semiquavers in ms.CGP|]


